!!!!SEGMENT: pl-kk--kk-i-131--001_anonim--beatus-vir-qui-inventus-est.krn
!!!cenid: 16xx:736
!!!COM: Anonim
!!!COM-rismID: pe30004985
!!!CDT:
!!!CNT:
!!!OTL: Beatus vir qui inventus est
!!!PDT:
!!!AGN: Sacred
!!!SMS-siglum: PL-Kk
!!!SMS-shelfmark: Kk.I.131
!!!SMS-shelfwork: 001 W
!!!SMS-variant:
!!!SMS-altvar:
!!!NIFC-rismSourceID: 1001145069
!!!NIFC-rismChildID: 1001145072
!!!NIFC-islandoraID: pl-kk:3553
!!!URL-pdf-islandora: https://repozytorium.nifc.pl/islandora/object/pl-kk%3A3553/datastream/PDF/view
!!!URL-scan: https://polish.musicsources.pl/pl/lokalizacje/galeria/rekopisy/5761 @EN{Scan on Polish Music Sources Website} @PL{Skany w portalu Dziedzictwo Muzyki Polskiej w otwartym dostępie}
!!!ONB-nifc: UWAGA: utwory w zbiorze: 1. Beatus vir qui inventus est, 2. Rorate
!!!AIN: 1 tenor
!!!key:
**kern	**text
*part1	*part1
*staff1	*staff1
*Itenor	*
*I"Tenore	*
*I'T	*
*clefC4	*
*k[]	*
*G:	*
*M2/2	*
*met(c|)	*
=1	=1
!	!
00r	.
=2	=2
.	.
=3	=3
.	.
=4	=4
.	.
=5	=5
0r	.
=6	=6
.	.
=7	=7
1r	.
=8	=8
2r	.
*2\right	*
!	!
2c\	Be-
=9	=9
2d\	-a-
2c\	-tus
=10	=10
2A,\	vir
*	*ij
2c\	Be-
=11	=11
2c\	-a-
2B\	-tus
=12	=12
2c,\	vir
*	*Xij
1c\	Be-
=13-	=13
.	.
2B\	.
=14	=14
1.c	-a-
=15-	=15
.	.
2B\	.
=16	=16
2A\	.
2A\	-tus
=17	=17
2G,/	vir
*custos:c	*
2B\	qui
!LO:LB:g=original	!
=18	=18
2c\	in-
2.d\	-ven-
=19-	=19
.	.
4c\	.
1c\	.
=20-	=20
.	.
2B\	-t(us)
=21	=21
2c\	est
1c\	si-
=22-	=22
.	.
2B\	-ne
=23	=23
2A\	ma-
2.c\	.
=24-	=24
.	.
8B\L	.
8A\J	.
2B\	.
=25	=25
2c\	.
2A/	-cu-
=26-	=26
1G	-la
=27	=27
0r	.
=28	=28
.	.
=29	=29
1r	.
=30	=30
2r	.
2e\	si-
=31	=31
2c\	.
2c\	-ne
!LO:LB:g=original	!
=32	=32
0d	ma-
=33-	=33
.	.
=34	=34
2B\	.
2G/	.
=35-	=35
2A\	.
2A\	-cu-
=36	=36
2G,/	-la
2d\	si-
=37	=37
2B\	-ne
2d\	ma-
=38-	=38
2c\	.
4B\	.
8A\L	.
8G\J	.
=39	=39
4A\	.
4B\	.
1c\	.
=40-	=40
.	.
2B\	-cu-
=41-	=41
0c	-la;
=42-	=42
.	.
=43	=43
0r	.
=44	=44
.	.
=45	=45
2r	.
2G/	Be-
=46	=46
(2A\	-a-
2B\)	.
=47-	=47
2.A\	-t(us)
4A\	.
=48-	=48
1B	vir.
!LO:LB:g=original	!
=49	=49
1r	.
=50	=50
2r	.
1d\	Be-
=51-	=51
.	.
2B\	.
=52	=52
1c	-a-
=53	=53
2A\	.
2B\	.
=54	=54
2c\	.
[<2d\	.
=55	=55
!LO:N:xstem:cue	!
4d\]	.
4c\	.
1c\	-tus
=56-	=56
.	.
2B\	.
=57-	=57
1c	vir.
=58	=58
00r	.
=59	=59
.	.
=60	=60
.	.
=61	=61
.	.
=62	=62
1r	.
=63	=63
2r	.
2d\	nec
=64	=64
2c\	spe-
(1B\	-ra-
=65-	=65
.	.
2A\	.
=66	=66
2B\)	.
2c\	-vit
=67-	=67
1d	.
!LO:LB:g=original	!
=68	=68
0r	.
=69	=69
.	.
=70	=70
2r	.
2G/	in
=71	=71
2A\	the-
2B\	-ſau-
=72	=72
2c,\	-ris
2d\	pe-
=73	=73
1c	.
=74-	=74
2d\	-cu-
2D/	-ni-
=75-	=75
1G	-ae
=76	=76
1r	.
=77	=77
0G,	nec
=78-	=78
.	.
=79-	=79
1G	spe-
=80	=80
1A	-ra-
=81	=81
2B\	.
1G/	.
=82-	=82
.	.
2F#X/	.
=83	=83
2G/	-vit
(2d\	in
!LO:LB:g=original	!
=84	=84
!LO:TX:a:t=P:problem=brak zakończenia łuku	!
2.e\)	.
4e\	the-
=85	=85
2e\	-ſau-
1c\	ris
=86-	=86
.	.
2c\	pe-
=87	=87
2.c\	-cu-
4c\	-ni-
=88	=88
2c,\	-ae
2c\	pe-
=89	=89
2A/	-cu-
2A/	-ni-
=90-	=90
1G,	-ae
=91	=91
1.d	in
=92-	=92
.	the-
2d\	-ſau-
=93	=93
1c	-ris
=94	=94
2B,\	.
2B\	pe-
=95	=95
1.A	-cu-
=96-	=96
.	.
2A\	-ni-
=97-	=97
0B;	-ae
=98	=98
.	.
!LO:LB:g=original	!
=99||	=99||
*M2/2	*
*met(c|)	*
1.c	Quis
=100-	=100
.	.
2c\	est
=101	=101
(1B	hic?
=102-	=102
1c)	.
=103	=103
!LO:TX:b:t=2.	!
0r	.
=104	=104
.	.
=105	=105
2r	.
2G/	laud-
=106	=106
2.c\	-a-
4c\	-bi-
=107	=107
2Bn\	-mus
2.A\	E-
=108-	=108
.	.
4G/	.
1G/	.
=109-	=109
.	.
2F#X/	.
=110	=110
1G	-um?
=111	=111
2r	.
(2C/	Fe-
=112	=112
2D/)	.
*custos:E	*
2D/	-cit
!LO:LB:g=original	!
=113	=113
(2E/	e-
2C/)	.
=114-	=114
1G	-nim
=115	=115
00r	.
=116	=116
.	.
=117	=117
.	.
=118	=118
.	.
=119	=119
1r	.
=120	=120
2r	.
2d\	in
=121-	=121
2B\	.
[<2c\	vi-
=122	=122
2c\]	.
2B\	-ta
=123-	=123
1A	su-
=124-	=124
1B	-a.
=125	=125
!LO:TX:a:t=3.	!
0r	.
=126	=126
.	.
=127	=127
!LO:TX:b:t=Vertatur	!
!LO:TX:t=P:problem=skreślone 13 taktów	!
1r	.
!LO:PB:g=original	!
=128	=128
2r	.
2G/	Quis
=129	=129
(2B\	est
2c\)	.
=130	=130
2d\	.
2d,\	quis
=131	=131
1e,	eſt
=132-	=132
(1d	hic?
=133-	=133
1c)	.
=134	=134
1r	.
=135	=135
2r	.
2d\	lau-
=136	=136
2c\	-da-
2A\	-bi-
=137	=137
2B,\	-mus
2c\	e-
=138	=138
2d\	.
2B\	.
=139-	=139
1A	-um
=140	=140
0r	.
=141	=141
.	.
!LO:LB:g=original	!
=142	=142
2.d\	et
4d\	lau-
=143	=143
(2c\	-da-
2A\)	.
=144-	=144
1c	.
=145	=145
2B\	bi-
2B,\	-m(us)
=146-	=146
1A	e-
=147-	=147
1B,	-um.
=148	=148
2.G/	Fe-
4G/	-cit
=149	=149
2G/	e-
2G/	-nim
=150	=150
1.G	mi-
=151-	=151
.	.
2G/	-ra-
=152	=152
2A\	-bi-
2B\	-li-
=153-	=153
2c,\	-a
2c\	in
=154	=154
2B\	vi-
2B\	-ta
=155-	=155
(2A\	su-
*custos:G	*
2B\)	.
!LO:LB:g=original	!
=156	=156
1G	.
=157-	=157
2A,\	-a
2G/	in
=158	=158
2G/	vi-
2G/	-ta
=159	=159
1G	su-
=160-	=160
2G,/	-a
2G/	in
=161	=161
1A	vi-
=162-	=162
1B,	-ta
=163	=163
(2c\	in
2A\)	.
=164-	=164
2B\	Vi-
2B,\	-ta
=165	=165
*	*ij
1A	Vi-
=166-	=166
1G	-ta
*	*Xij
=167-	=167
1c	su-
=168-	=168
0B;	-a.
=169-	=169
.	.
==	==
*-	*-
!!!RDF**kern: < = below
!!!ENC: Marta Lawrence
!!!END: 2021-02-15
!!!ENC: Krzysztof Stępień
!!!END: 2021-02-11
!!!YEC: Copyright 2022 Narodowy Instytut Fryderyka Chopina (https://polishscores.org)
!!!YEM: License CC-BY-4.0 (https://creativecommons.org/licenses/by/4.0)
